symbols/web/speaker_group/materialsymbolsrounded/speaker_group_wght600grad200fill1_40px.svg

<svg xmlns="http://www.w3.org/2000/svg" height="40" width="40"><path d="M14.917 33q-1.584 0-2.771-1.188-1.188-1.187-1.188-2.812V4.458q0-1.625 1.188-2.812Q13.333.458 14.917.458h16.875q1.666 0 2.854 1.188 1.187 1.187 1.187 2.812V29q0 1.625-1.187 2.812Q33.458 33 31.792 33Zm8.458-20q1.333 0 2.271-.896.937-.896.937-2.271 0-1.291-.937-2.187-.938-.896-2.271-.896t-2.208.896q-.875.896-.875 2.229 0 1.333.896 2.229.895.896 2.187.896Zm.042 13.792q2.416 0 4.125-1.709 1.708-1.708 1.708-4.166 0-2.459-1.708-4.167-1.709-1.708-4.125-1.708-2.459 0-4.188 1.708-1.729 1.708-1.729 4.167 0 2.458 1.729 4.166 1.729 1.709 4.188 1.709Zm-.084-3.125q-1.166 0-1.937-.792-.771-.792-.771-1.958 0-1.125.792-1.938.791-.812 1.916-.812 1.167 0 1.979.812.813.813.813 1.938 0 1.166-.813 1.958-.812.792-1.979.792ZM8.75 39.375q-1.625 0-2.833-1.187Q4.708 37 4.708 35.375V8.083q0-.833.604-1.416.605-.584 1.438-.584t1.417.584q.583.583.583 1.416v27.292h12.625q.833 0 1.417.583.583.584.583 1.417 0 .833-.604 1.417-.604.583-1.396.583Z"/></svg>

<svg xmlns="http://www.w3.org/2000/svg" height="40" width="40"><path d="M14.917 33Q13.333 33 12.146 31.812Q10.958 30.625 10.958 29V4.458Q10.958 2.833 12.146 1.646Q13.333 0.458 14.917 0.458H31.792Q33.458 0.458 34.646 1.646Q35.833 2.833 35.833 4.458V29Q35.833 30.625 34.646 31.812Q33.458 33 31.792 33ZM23.375 13Q24.708 13 25.646 12.104Q26.583 11.208 26.583 9.833Q26.583 8.542 25.646 7.646Q24.708 6.75 23.375 6.75Q22.042 6.75 21.167 7.646Q20.292 8.542 20.292 9.875Q20.292 11.208 21.188 12.104Q22.083 13 23.375 13ZM23.417 26.792Q25.833 26.792 27.542 25.083Q29.25 23.375 29.25 20.917Q29.25 18.458 27.542 16.75Q25.833 15.042 23.417 15.042Q20.958 15.042 19.229 16.75Q17.5 18.458 17.5 20.917Q17.5 23.375 19.229 25.083Q20.958 26.792 23.417 26.792ZM23.333 23.667Q22.167 23.667 21.396 22.875Q20.625 22.083 20.625 20.917Q20.625 19.792 21.417 18.979Q22.208 18.167 23.333 18.167Q24.5 18.167 25.312 18.979Q26.125 19.792 26.125 20.917Q26.125 22.083 25.312 22.875Q24.5 23.667 23.333 23.667ZM8.75 39.375Q7.125 39.375 5.917 38.188Q4.708 37 4.708 35.375V8.083Q4.708 7.25 5.312 6.667Q5.917 6.083 6.75 6.083Q7.583 6.083 8.167 6.667Q8.75 7.25 8.75 8.083V35.375Q8.75 35.375 8.75 35.375Q8.75 35.375 8.75 35.375H21.375Q22.208 35.375 22.792 35.958Q23.375 36.542 23.375 37.375Q23.375 38.208 22.771 38.792Q22.167 39.375 21.375 39.375Z"/></svg>
